X: 2
T: Miss Mahany's Favourite
R: polka
M: 2/4
L: 1/8
K: Gmaj
d>B GB|c/B/A GD|E/F/G AF|G>A Bc|d>B GB|c/B/A/B/ GD|E/F/G/B/ AF|G2 G2:|
B>A B/c/d|fd g>d|e/f/g af|gf ed|B>A B/c/d|fd g>d|e/f/g ef|1 g2 g2:|2 g3 a||
b/a/g ag/f/|g/f/e d>B|c/B/A BA/G/|AF D2|d>B GB|c/B/A/B/ GD|E/F/G/B/ AF|1 GB dg:|2 G2 G2||

